X: 33
T: Jakokolwiek szczęście ku mnie się postawi,
C: Mikołaj Gomółka
%%abc-version 2.0
%%abcx-abcm2ps-target-version 5.9.1 (29 Sep 2008)
%%abc-creator hum2abc beta
%%abcx-conversion-date 2021/10/04 07:59:09
%%abc-edited-by Marta Lawrence
%%abcx-initial-encoding-date 2020-02-07
%%humdrum-veritas 913350461
%%humdrum-veritas-data 3323230600
%%linebreak <none>
%%barnumbers 0
L: 1/4
M: C|
N: Derived from pl-wn--sd-xvi-qu-273--034_gomolka-mikolaj--jakokolwiek-szczescie-ku-mnie-sie-postawi.krn
%%staves [1 2 3 4]
V: 1
V: 2 clef=alto
V: 3 clef=tenor
V: 4 clef=bass
K: F
[V:1] D4E2F2 [|] 
[V:2] =B,4C2D2 [|] 
[V:3] G,4G,2B,A, [|] 
[V:4] G,,4C,2B,,2 [|] 
[V:1] G2>A2B2A2 [|] 
[V:2] D2C2D2F2 [|] 
[V:3] G,F,G,2F,2D2 [|] 
[V:4] E,2E,2D,2D,2 [|] 
[V:1] G2FED2BA [|] 
[V:2] E2A2G3F [|] 
[V:3] C2C2B,3C [|] 
[V:4] E,2F,2G,3A, [|] 
[V:1] GFEDEFE2 [|] 
[V:2] EDG2A3G [|] 
[V:3] D2B,2CD2C [|] 
[V:4] B,2B,2A,4 [|] 
[V:1] D2A2B2B2 [|] 
[V:2] ^F2=F2F2G2 [|] 
[V:3] D2D2D2B,2 [|] 
[V:4] D,2D,2B,2G,2 [|] 
[V:1] A2c2B2AB [|] 
[V:2] E2F2DEF2 [|] 
[V:3] C2A,2B,CD2 [|] 
[V:4] A,2F,2G,2D,2 [|] 
[V:1] AGG2G2F2 [|] 
[V:2] _E2E2D3C [|] 
[V:3] B,2CB,A,G,A,2 [|] 
[V:4] E,2C,2D,4 [|] 
[V:1] G4B4 [|] 
[V:2] =B,4F4 [|] 
[V:3] G,4D4 [|] 
[V:4] G,,4B,4 [|] 
[V:1] B2>B2B2B2 [|] 
[V:2] G2>G2F2F2 [|] 
[V:3] _E2>E2D2D2 [|] 
[V:4] E,2>E,2B,,2B,,2 [|] 
[V:1] A2A2A2FG [|] 
[V:2] F2A,2C2B,2 [|] 
[V:3] C2F2=E2D2 [|] 
[V:4] F,2D,2A,,2B,,2 [|] 
[V:1] A2>G2^F2G4 [|] 
[V:2] C2>B,2A,2B,4 [|] 
[V:3] E2E2D2D4 [|] 
[V:4] A,,2A,,2D,2G,4 [|] 
[V:1] G2A2A2 [|] 
[V:2] C2A,2F2 [|] 
[V:3] E2C2D2 [|] 
[V:4] C,2F,2D,2 [|] 
[V:1] d4c3B [|] 
[V:2] B4A3G [|] 
[V:3] F4F2E2 [|] 
[V:4] B,,C,D,E,F,2C,2 [|] 
[V:1] A2A2=F2G2 [|] 
[V:2] F2=E2D2D4 [|] 
[V:3] D2C2B,2B,2 [|] 
[V:4] D,2A,,2B,,2G,,2 [|] 
[V:1] E2AG^FEF2 [|] 
[V:2] ^C2D4 [|] 
[V:3] A,4A,4 [|] 
[V:4] A,,4D,4 [|] 
[V:1] G16 |]  
[V:2] D16 |]  
[V:3] =B,16 |]  
[V:4] G,,16 |]  


